X:1
T:Christus factus est - Pitoni
T:#
%%score [ 1 2 3 4 ]
L:1/8
Q:1/4=200
M:none
K:C
V:1 treble nm="S" snm="S"
V:2 treble nm="A" snm="A"
V:3 treble-8 nm="T" snm="T"
V:4 bass nm="B" snm="B"
V:1
"^Christus factus est""^Giuseppe Ottavio Pitoni\n(1657-1743)" z4 A8 ^G4 | A6 A2 E4 e4 | c8 B8 | %3
w: Chri- stus|fa- ctus est pro|no- bis,|
 A2 B2 c2 A2 B8 | B2 A2 A8 ^G4 |[M:4/2] A4 z4 B8 | c4 c4 d4 e4 | (c8 B8) | A4 A4 A4 ^G4 | A8 B8 | %10
w: fa- ctus est pro no-|bis o- be- di-|ens us-|que, us- que ad|mor\- *|tem, o- be- di-|ens us-|
 c4 A4 (d8- | d4 c4 B8) | A4 A8 ^G4 | A2 B2 c2 A2 B8 | c8 B8 | (A6 c2 B6) B2 | A8 ^F6 F2 | %17
w: que ad mor\-||tem, Chri- stus|fa- ctus est pro no-|bis o-|be\- * * di-|ens, fa- ctus|
 G4 B4 A8 | ^G4 A4 B4 =G4 | A4 d8 c4- | c4 B4 A8 | G4 G8 G4 | G4 G4 E8 | E4 G4 (A2 B2 c2 B2 | %24
w: est pro no-|bis o- be- di-|ens us- que|* ad mor-|tem, fa- ctus|est pro no-|bis o- be\- * * *|
 A4 B4 c6) c2 | B4 A4 ^G4 A4 | (B4 c4 B4 ^G4 | A12 ^G2 ^F2) | ^G16 || (c8 _B8- | B4 A8 =B4 | %31
w: * * * di-|ens us- que ad|mor\- * * *||tem,|mor\- *||
 c2 d2 e2 d2 c2 _B2 A4-) | (A4 G2 F2 G8) | A16 | z8 f8 | G8 e8 | F8 (d8 | _e6 d2) c8 | %38
w: ||tem,|mor-|tem, mor-|tem, mor\-|* * tem|
 (d2 c2) _B8 A4 | _B8 _A8- | A4 _A4 G8 | G8 z4 _B4- | B4 _B4 A8 | A8 z4 A4- | A4 A4 ^G8 | A8 (A8 | %46
w: au\- * tem cru-|cis, mor\-|* tem au-|tem, mor\-|* tem au-|tem, mor\-|* tem au-|tem cru\-|
 ^G4 A8 G4) | A16 || A6 A2 A4 G4 | G8 G4 G2 A2 | (B2 c2 d2 c2 B6 A2 | G2 A2 B2) c2 d4 d4 | %52
w: |cis.|Pro- pter quod et|De- us ex- al-|ta\- * * * * *|* * * vit il- lum,|
 d4 d4 (d2 e2 f2 e2 | d4) d4 A2 A2 A2 A2 | A8 ^G8 | c4 B4 A4 ^G4 | A4 ^G4 E4 E4 | A4 B4 c4 B4 | %58
w: ex- al- ta\- * * *|* vit, ex- al- ta- vit|il- lum,|et do- na- vit|il- li, et do-|na- vit il- li|
 A8 ^G8 | A4 A4 d6 c2 | (B2 c2 d2 B2 c6 B2) | A4 A4 (A4 ^G4) | A4 A8 B4 | %63
w: no- men,|quod est su- per|o\- * * * * *|* mne no\- *|men, su- per|
 A4 A4[Q:1/4=198] (^G4[Q:1/4=195] A4 |[Q:1/4=192] B4[Q:1/4=188] c4[Q:1/4=185] d4[Q:1/4=182] e4 | %65
w: o- mne no\- *||
[Q:1/4=179] d4[Q:1/4=177] c4[Q:1/4=172] B8) |[Q:1/4=170] A16 |] %67
w: |men.|
V:2
 z16 | z4 A8 ^G4 | A6 A2 E4 E4 | C8 B,8 | A,2 B,2 C2 A,2 B,8 |[M:4/2] B,2 A,2 A,8 ^G,4 | %6
w: |Chri- stus|fa- ctus est pro|no- bis,|fa- ctus est pro no-|bis o- be- di-|
 A,4 z4 B,8 | C4 C4 D4 E4 | (C8 B,8) | A,4 A,4 A,4 ^G,4 | A,8 B,8 | C4 A,4 ((D8- | D4 C4 B,8)) | %13
w: ens us-|que, us- que ad|mor\- *|tem, o- be- di-|ens us-|que ad mor\-||
 A,4 A,8 ^G,4 | A,2 B,2 C2 A,2 B,8 | C4 E4 D6 D2 | C4 E4 E4 ^D4 | E8 C4 D4 | E4 E4 D8 | %19
w: tem, Chri- stus|fa- ctus est pro no-|bis o- be- di-|ens, o- be- di-|ens, fa- ctus|est pro no-|
 C4 D4 E6 E2 | D4 G8 F4- | F4 E4 D8 | E8 G8 | E4 E8 E4 | E4 E4 C4 C2 D2 | E4 C4 B,4 A,4 | %26
w: bis o- be- di-|ens us- que|* ad mor-|tem, Chri-|stus fa- ctus|est pro no- bis o-|be- di- ens us-|
 ^G,4 A,4 (B,2 CD E4- | E4 D2 C2 D8) | E16 || (G16- | G4 F8 ^G4 | A4 E6 D2 C2 E2) | %32
w: que ad mor\- * * *||tem,|mor\-|||
 (F2 E2 D6 E2 F2 G2) | E8 (E8 | F6 E2 D2 E2 F2 D2 | G6 F2 E8) | D8 _B8 | C8 A8 | _B,8 F4 F4 | %39
w: |tem, mor\-|||tem, mor-|tem, mor-|tem au- tem|
 F8 F8 | F4 F4 _E8 | _E8 z4 G4- | G4 G4 F8 | F8 z4 ^F4- | F4 ^F4 E8 | E8 (F8 | E4 C2 D2 E8) | %47
w: cru- cis,|mor- tem au-|tem, mor\-|* tem a-|tem, mor\-|* tem au-|tem cru\-||
 E16 || E6 E2 F4 D4 | E8 D8 | (G,2 A,2 B,2) C2 (D2 C2 B,4- | B,2 A,2 G,2 A,2 B,2) C2 D4 | %52
w: cis.|Pro- pter quod et|De- us|ex\- * * al- ta\- * *|* * * * * vit il-|
 D4 D2 E2 (F2 E2 D2 E2 | F2 G2 A2 G2 F4) F4 | E4 E4 E4 E4 | A4 B4 c4 B4 | A4 E2 E2 E4 E4 | %57
w: lum, ex- al- ta\- * * *|* * * * * vit|il- lum, et do-|na- vit il- li|no- men, do- na- vit|
 E4 E4 E8 | E8 E4 E4 | A6 G2 F4 F4 | D4 D4 G6 G2 | F4 F4 E8 | E4 E8 E4 | E4 F4 (E8 | %64
w: il- li no-|men, quod est|su- per o- mne|no- men, su- per|o- mne no-|men, su- per|o- mne no\-|
 D4 C4 B,4 A,4 | B,4 C2 D2 E8) | E16 |] %67
w: ||men.|
V:3
 z16 | z16 | z4 A8 ^G4 | A6 A2 E4 e4 | c8 B8 |[M:4/2][K:treble-8] A2 B2 c2 A2 B8 | B2 A2 A8 ^G4 | %7
w: ||Chri- stus|fa- ctus est pro|no- bis,|fa- ctus est pro no-|bis o- be- di-|
 A4 z4 B8 | c4 c4 d4 e4 | (c8 B8) | A4 A4 A4 ^G4 | A8 B8 | c4 A4 (d8- | d4 c4 B8) | A4 A8 ^G4 | %15
w: ens us-|que, us- que ad|mor\- *|tem, o- be- di-|ens us-|que ad mor\-||tem, Chri- stus|
 A2 B2 c2 A2 B8 | c4 c4 B6 B2 | B4 e8 d4- | d4 c4 B8 | A8 G8 | G8 A4 d4 | d4 c4 (c4 B4) | %22
w: fa- ctus est pro no-|bis o- be- di-|ens us- que|* ad mor-|tem, Chri-|stus fa- ctus|est pro no\- *|
 c4 c4 (e6 d2 | c2 d2 e2 d2 c2 B2 A2 B2 | c4 B4 A6) A2 | ^G4 A4 B4 c4 | (B4 A4 ^G4 B4 | A16) | %28
w: bis o- be\- *||* * * di-|ens us- que ad|mor\- * * *||
 B16 || (e16 | d2 e2 f2 e2 d8 | e2 d2 c6 d2 e2 c2) | (d6 e2 f2 e2 d4- | d4 ^c2 B2) c8 | z8 (d8 | %35
w: tem,|mor\-||||* * * tem,|mor\-|
 _e6 d2) ^c8 | (d6 =c2) _B8 | (c6 _B2) A8 | (_B2 c2) d4 c8 | d8 d8- | d4 d4 _e8 | c8 z4 =e4- | %42
w: * * tem,|mor\- * tem,|mor\- * tem,|au\- * tem cru-|cis, mor\-|* tem au-|tem, mor\-|
 e4 e4 f8 | d8 z4 c4- | c4 c4 B8 | c8 A4 d4 | B4 c4 B8 | A16 || c6 c2 d4 B4 | c8 B8 | %50
w: * tem a-|tem, mor\-|* tem au-|tem, mor- tem|au- tem cru-|cis.|Pro- pter quod et|De- us|
 z4 G2 A2 (B2 c2 d2 c2 | B4) B4 (G2 A2 B2) c2 | d4 d4 d4 d4 | (d2 e2 f2 e2 d4) d4 | c8 B8 | %55
w: ex- al- ta\- * * *|* vit, ex\- * * al-|ta- vit, ex- al-|ta\- * * * * vit|il- lum,|
 E4 E4 A4 B4 | c4 B4 A4 ^G4 | c4 B4 (A4 B4 | c8) B8 | z16 | G4 G4 c4 c4 | c4 d4 B8 | c4 c8 B4 | %63
w: et do- na- vit|il- li no- men,|il- li no\- *|* men,||quod est su- per|o- mne no-|men, su- per|
 (c4 d8) c4 | (B4 e4 d4 c4 | B4 A8 ^G4) | A16 |] %67
w: o\- * mne|no\- * * *||men.|
V:4
 z16 | z16 | z16 | z4 A,8 ^G,4 | A,6 A,2 E,4 E4 |[M:4/2] C8 B,8 | A,2 B,2 C2 A,2 B,8 | %7
w: |||Chri- stus|fa- ctus est pro|no- bis,|fa- ctus est pro no-|
 B,2 A,2 A,8 ^G,4 | A,4 z4 B,8 | C4 C4 D4 E4 | (C8 B,8) | A,4 A,4 A,4 ^G,4 | A,8 B,8 | %13
w: bis o- be- di-|ens uus-|que, us- que ad|mor\- *|tem, o- be- di-|ens us-|
 C4 A,4 (E,6 D,2 | C,4 A,,4 E,8) | A,,4 A,8 ^G,4 | A,2 B,2 C2 A,2 B,8 | E,4 E,4 F,6 F,2 | %18
w: que ad mor\- *||tem, Chri- stus|fa- ctus est pro no-|bis o- be- di-|
 E,4 A,8 G,4- | G,4 F,4 (E,6 F,2) | (G,8 D,6 C,2 | B,,4 C,4 G,8) | C,4 C8 C4 | C4 C4 A,8 | %24
w: ens us- que|* ad mor\- *|||tem, fa- ctus|est pro no-|
 A,4 ^G,4 A,6 A,2 | E,8 E,8 | E,8 E,8 | F,16 | E,16 || (C,8 ^C,8 | D,16 | =C,16) | _B,,16 | A,,16 | %34
w: bis o- be- di-|ens us-|que ad|mor-|tem,|mor\- *||||tem,|
 (A,8 _B,6 A,2) | G,8 A,6 G,2 | F,4 D,4 (G,6 F,2) | _E,8 F,6 E,2 | D,4 _B,,4 F,8 | _B,,8 =B,,8- | %40
w: mor\- * *|tem, mor- tem|au- tem, mor\- *|tem, mor- tem|au- tem cru-|cis, mor\-|
 B,,4 B,,4 C,8 | C,8 ^C,8- | C,4 ^C,4 D,8 | D,8 z4 ^D,4- | D,4 ^D,4 E,8 | C,8 F,4 D,4 | E,16 | %47
w: * tem au-|tem, mor\-|* tem au-|tem, mor\-|* tem, mor-|tem au- tem|cru-|
 A,,16 || A,6 A,2 D,4 G,4 | C8 G,8 | G,4 G,4 (G,4 G,,2 A,,2 | B,,2 C,2 D,2 C,2 B,,6 A,,2 | %52
w: cis.|Pro- pter quod et|De- us|ex- al- ta\- * *||
 G,,2 A,,2 B,,2) C,2 D,4 D,4 | D,4 D,4 (D,2 E,2 F,2) G,2 | A,8 E,8 | E,8 E,8 | A,4 B,4 C4 B,4 | %57
w: * * * vit il- lum,|ex- al- ta\- * * vit|il- lum,|et do-|na- vit il- li|
 A,4 ^G,4 A,4 E,4 | A,,8 E,8 | z8 D,4 D,4 | G,6 F,2 (E,2 D,2 C,2 E,2) | F,4 D,4 E,8 | %62
w: no- men, il- li|no- men,|quod est|su- per o\- * * *|* mne no-|
 A,,4 A,8 ^G,4 | A,4 D,4 E,8- | E,16 | E,16 | A,,16 |] %67
w: men, su- per|o- mne no\-|||men.|

